packages/core/src/svgs/tokens/mono/XTP.svg

<svg width="24" height="24" viewBox="0 0 24 24" fill="none" xmlns="http://www.w3.org/2000/svg">
<path fill-rule="evenodd" clip-rule="evenodd" d="M6.99998 2H17C19.7613 2 22 4.23856 22 6.99998V17C22 19.7613 19.7613 22 17 22H6.99998C4.23856 22 2 19.7613 2 17V6.99998C2 4.23856 4.23856 2 6.99998 2ZM4.73737 11.7994C4.73737 6.84314 8.78737 4.72439 11.9311 4.72439C17.4124 4.72439 19.3436 9.00562 19.3436 12.0119C19.3436 13.5096 18.9875 14.3404 18.8344 14.6979L18.8124 14.7493C18.6998 15.0181 18.3123 15.4994 17.7748 15.2243C17.3435 15.0056 17.4186 14.3181 17.6186 13.9744C17.9498 13.4119 17.9811 12.4618 17.9498 12.0119C17.9498 7.57439 13.9936 6.06814 11.9311 6.06814C10.2186 6.06814 6.11863 7.23689 6.08737 12.0119C6.06862 15.8368 9.56861 17.5868 11.2749 17.9181C11.6249 17.9431 12.2499 18.1055 12.1748 18.6431C12.1061 19.1806 11.5623 19.1806 11.2749 19.1806C9.46302 18.982 7.78999 18.1162 6.58151 16.7518C5.37304 15.3874 4.71566 13.6219 4.73737 11.7994ZM7.41862 11.8369C7.41862 9.18056 9.86232 7.33688 12.1624 7.44938C15.5749 7.60563 16.5374 10.4118 16.5374 11.9744C16.5374 12.9493 16.2435 13.0743 15.8498 13.0743C15.4623 13.0743 15.3499 12.4932 15.3499 11.9744C15.3449 11.1322 15.0069 10.3264 14.4097 9.73254C13.8123 9.13885 13.0044 8.80561 12.1624 8.80563C11.081 8.80563 8.72486 9.39319 8.70611 11.9744C8.69987 13.6619 9.73107 14.868 10.7999 15.0681C11.0936 15.1305 11.3812 15.4431 11.2998 15.7744C11.2123 16.1119 10.9498 16.1744 10.6311 16.1744C9.15605 16.0993 7.41862 14.4994 7.41862 11.8369ZM12.6374 15.2743C13.3775 15.0196 14.0505 14.6009 14.6061 14.0493C14.7374 13.9244 15.1498 13.8306 15.4499 14.2057C15.7436 14.5869 15.5749 14.9555 15.4499 15.0993C14.8084 15.714 14.0608 16.2074 13.2436 16.5556C13.0123 16.6681 12.6186 16.5305 12.4498 16.1994C12.2748 15.8682 12.3561 15.3556 12.6374 15.2743Z" fill="white"/>
</svg>

<svg xmlns="http://www.w3.org/2000/svg" width="24" height="24" fill="none" viewBox="0 0 24 24">
    <path fill="#fff" fill-rule="evenodd" d="M7 2h10a5 5 0 0 1 5 5v10a5 5 0 0 1-5 5H7a5 5 0 0 1-5-5V7a5 5 0 0 1 5-5m-2.263 9.8c0-4.957 4.05-7.076 7.194-7.076 5.481 0 7.413 4.282 7.413 7.288 0 1.498-.357 2.328-.51 2.686l-.022.051c-.112.27-.5.75-1.037.475-.431-.218-.356-.906-.156-1.25.33-.562.362-1.512.33-1.962 0-4.438-3.955-5.944-6.018-5.944-1.712 0-5.812 1.169-5.844 5.944-.018 3.825 3.482 5.575 5.188 5.906.35.025.975.188.9.725-.069.538-.613.538-.9.538a7.34 7.34 0 0 1-6.538-7.382m2.682.037c0-2.656 2.443-4.5 4.743-4.388 3.413.157 4.375 2.963 4.375 4.525 0 .975-.293 1.1-.687 1.1-.388 0-.5-.58-.5-1.1a3.19 3.19 0 0 0-3.188-3.168c-1.081 0-3.437.587-3.456 3.168-.006 1.688 1.025 2.894 2.094 3.094.294.063.581.375.5.706-.088.338-.35.4-.669.4C9.156 16.1 7.42 14.5 7.42 11.837m5.218 3.437a5.2 5.2 0 0 0 1.97-1.225c.13-.125.543-.218.843.157a.695.695 0 0 1 0 .893 7.4 7.4 0 0 1-2.206 1.457c-.232.112-.625-.026-.794-.357-.175-.33-.094-.843.187-.925" clip-rule="evenodd"/>
</svg>
